X: 176
T: No_98_My_Shining_Horns.krn
%%abc-version 2.0
%%abcx-abcm2ps-target-version 5.9.1 (29 Sep 2008)
%%abc-creator hum2abc beta
%%abcx-conversion-date 2020/08/10 18:54:57
%%gracespace 0 6 6
%%humdrum-veritas 4132089075
%%humdrum-veritas-data 1593394771
%%linebreak <none>
%%barnumbers 0
L: 1/8
M: 2/4
%%staves {1 2}
V: 1 clef=bass
V: 2 clef=bass
K: D
[V:1] [K:clef=bass][M:2/4]B,B,B,2 | 
[V:2] [K:clef=bass][M:2/4](3!accent!G,, z G,, (3!accent!G,, z G,, | 
[V:1] B,2DD | 
[V:2] (3!accent!G,, z G,, (3!accent!G,, z G,, | 
[V:1] B,3A, | 
[V:2] z4 | 
[V:1] F,3E, | 
[V:2] z4 | 
[V:1] D,D,B,,2 | 
[V:2] z4 | 
[V:1] F,F,E,2 ||  
[V:2] z4 ||  
[V:1] [M:3/4]D,D,B,,2D,D, | 
[V:2] [M:3/4]z6 | 
[V:1] B,,6 |]  
[V:2] z6 |]  


